dist/svg/indent.svg

<!-- Generated by Trend Micro Style Portal -->
<svg version="1.1" xmlns="http://www.w3.org/2000/svg" width="16" height="16" viewBox="0 0 16 16">
  <title>indent</title>
  <path fill="rgb(34,34,34)" d="M14 5h-12v-2h12zM14 12h-12v2h12zM14 6h-7v2h7zM14 9h-7v2h7zM2 6v5l3-2.5z"></path>
</svg>

<svg width="16" height="16" viewBox="0 0 16 16" fill="rgb(34, 34, 34)" xmlns="http://www.w3.org/2000/svg"><title>indent</title><path d="M14 5H2V3H14V5ZM14 12H2V14H14V12ZM14 6H7V8H14V6ZM14 9H7V11H14V9ZM2 6V11L5 8.5L2 6Z" fill="rgb(34, 34, 34)" fill-opacity="1.00"/></svg>
